X:883
T:Martin Ansboro's
R:reel
Z:id:hn-reel-883
M:C|
L:1/8
K:Edor
~e3d BAFA | d2fd adfd | ~e3d BAFA |1 faba feed :|2 faba fe~e2 ||
|: befe befe | adfd adfd | befe befe |1 afde fe~e2 :|2 afde feed ||

